X: 3022
T: Battle Swing
R: jig
M: 6/8
K: Bminor
|:BdB ~f3|edc edc|BdB ~f3|edc ABc|
BdB ~f3|edc edc|Bfe dcB|cB^A B3:|
|:Bdf b3|afe fed|Bdf b3|afe e3|
Bdf b3|afe fed|cfe dcB|cB^A B3:|

